X:2548
T:Cantar de Ronda (CT 101)
R:Ronda
C:Tradicional
S:Música Tradicional Asturiana, (C) Tello & Tito. Asturies, 2001.
S:http://pagina.de/MusTradAst <telloytito@asturies.org>
N:Variante de la número CT 100, dictada por Pedro Menéndez, "El Manjoyu", de treinta y nueve años, de San Esteban de Las Cruces, ayuntamiento de Uviéu.
O:San Esteban de Las Cruces (Uviéu)
A:Asturies
Z:Cancioneru de Torner 101
M:2/4
L:1/8
Q:1/4=76
W:-Ya no vuelvo más a Sama,
W:tiralala,
W:que llevó la puente el río,
W:tiralalala.
W:
W:-Hai una chalana nueva,
W:tiralala,
W:pásala, galán, conmigo,
W:tiralalala.
K:C
B/c/
|dd ee|[M:3/4]cc e2 d(3B/c/B/|[M:2/4]A2 z A/B/|
cc dd|A>B cB|[M:3/4](A3/2G/4A/4)(B2 A3/2B/4A/4)|[M:2/4]G2 z2 :||


